X:26
T:GB/7c/26 Basket of Eggs
%%VWML:GB-7c-26-0
F:http://www.vwml.org/record/GB/7c/26
P:R.V(aughan) W(illiams) & G.S.K. B(utterworth)
C:Transcribed by Simon Furey and Lewis Jones
L:1/4
M:4/4
I:linebreak $
K:Dmix
D | D E F/G/A/B/ | c B A/F/ !fermata!D | G F G A | d f/e/ !fermata!d z/ d/ |$ d F G A/B/ | c B A/F/ D | G F E/F/G/A/ | B A D |]

